X:1
T:All Undwer the New Mown Hay
M:6/8
L:1/8
K:D
 A| A2 A F2 A| GFG E3| F2 D D2 F| E2 C A,2 A| A2 A F2 A| GFG E2 E|\
 FDD D2 F| EA,A, A,2 A,| D2 E F3/2 E/2 D| F A4 F| E2 E E2 D| F A4 d|\
 d2 F GGB| A F4 A| A3/2 B/2 AG-F E| D4 z||
